icon-themes/breeze_svg/cmd/lc_importdialog.svg

<svg viewBox="0 0 24 24" xmlns="http://www.w3.org/2000/svg"><path d="m6 10c-.55228 0-1 .44772-1 1 0 .55229.44772 1 1 1s1-.44771 1-1c0-.55228-.44772-1-1-1zm0 4c-.55228 0-1 .44772-1 1 0 .55229.44772 1 1 1s1-.44771 1-1c0-.55228-.44772-1-1-1zm0 4c-.55228 0-1 .44772-1 1 0 .55229.44772 1 1 1s1-.44771 1-1c0-.55228-.44772-1-1-1z" fill="#f47750"/><path d="m5 4v5h1v-4h12v8 1 1 1h-5.09375l2.21875-2.28125-.71875-.71875-3.1875 3.28125-.21875.21875.21875.21875 3.1875 3.28125.71875-.71875-2.21875-2.28125h6.09375v-1-1-1-1-9h-1-12zm3 15v1h2v-1z" fill="#4d4d4d"/></svg>

<svg xmlns="http://www.w3.org/2000/svg" viewBox="0 0 24 24">
 <path 
     style="fill:#f47750" 
     d="M 6 10 C 5.44772 10 5 10.44772 5 11 C 5 11.55229 5.44772 12 6 12 C 6.55228 12 7 11.55229 7 11 C 7 10.44772 6.55228 10 6 10 z M 6 14 C 5.44772 14 5 14.44772 5 15 C 5 15.55229 5.44772 16 6 16 C 6.55228 16 7 15.55229 7 15 C 7 14.44772 6.55228 14 6 14 z M 6 18 C 5.44772 18 5 18.44772 5 19 C 5 19.55229 5.44772 20 6 20 C 6.55228 20 7 19.55229 7 19 C 7 18.44772 6.55228 18 6 18 z "
     />
 <path 
     style="fill:#4d4d4d" 
     d="M 5 4 L 5 9 L 6 9 L 6 5 L 18 5 L 18 13 L 18 14 L 18 15 L 18 16 L 12.90625 16 L 15.125 13.71875 L 14.40625 13 L 11.21875 16.28125 L 11 16.5 L 11.21875 16.71875 L 14.40625 20 L 15.125 19.28125 L 12.90625 17 L 19 17 L 19 16 L 19 15 L 19 14 L 19 13 L 19 4 L 18 4 L 6 4 L 5 4 z M 8 19 L 8 20 L 10 20 L 10 19 L 8 19 z "
     />
 </svg>
